X:1     %Music
T:Bonnie Susie Cleland
F:http://www.folkinfo.org/songs
B:Palmer, Roy, Bushes and Briars, LLanerch, 1999
Z:Vaughan Williams
S:Mr Wetherill, published 1941
M:4/4     %Meter
L:1/8     %
K:Bm
(D3/2E/) |F2 F2 F2 F2 |A2 A2 A4 |A2 (GF) E4 | G2 (FE) HD2
w:There_ lived a la-dy in Scot-land. O my_ love, O my_ love. 
 (D3/2E/) |F2 F2 F2 F2 |A2 A2 A4 |B3 c d2 c2 | B4 A2
w:There_ lived a la-dy in Scot-land. O my love so ear-ly.
 A2 |d2 A2 A2 F2 |G2 B2 B2 A2 |AA F2 F2 DD | F2 E2 E2 
w: There lived a la-dy in Scot-land, She's fal-len in love with an Eng-lish-man. 
A2 |D2 (DE) F2 B2 |(AF) D2 E/ E/ F A2 |(AG) E2 D2  |]
w:And bon-ny_ Su-sie Cle-*land's to be bur-ied in_ Dun-dee 